icons/svg/cursor-drag.svg

<svg width="24" height="24" viewBox="0 0 24 24" fill="none" xmlns="http://www.w3.org/2000/svg">
<path d="M7.31496 11.0547L7.31498 15.2313M10.5611 8.63819V6.55487C10.5611 5.66304 9.83443 4.94007 8.93802 4.94007C8.04161 4.94007 7.31492 5.66304 7.31492 6.55487L7.31492 10.3021M10.5611 9.73564L10.5611 4.3648C10.5611 3.47297 11.2878 2.75 12.1842 2.75C13.0806 2.75 13.8073 3.47297 13.8073 4.3648L13.8073 9.73132M13.8074 9.73563L13.8073 6.55487C13.8073 5.66304 14.534 4.93422 15.4304 4.93422C16.3269 4.93422 17.0535 5.66304 17.0535 6.55487L17.0535 8.74494M17.0535 8.74494V9.73563M17.0535 8.74494C17.0535 7.85311 17.7802 7.13014 18.6766 7.13014C19.5731 7.13014 20.2997 7.85311 20.2997 8.74494L20.2998 14.6798C20.2998 18.3084 17.3582 21.25 13.7296 21.25H10.781C8.92343 21.25 7.14021 20.52 5.81583 19.2174C4.36036 17.7859 3.59357 15.7958 3.71217 13.7578L3.72707 13.5018C3.80075 12.2357 4.64816 11.1464 5.85725 10.7636L7.31492 10.3021M7.31492 10.3021V11.3993" stroke="currentColor" stroke-width="1.5" stroke-linecap="round" stroke-linejoin="round"/>
</svg>

<svg xmlns="http://www.w3.org/2000/svg" width="24" height="24" fill="none" viewBox="0 0 24 24"><path stroke="currentColor" stroke-linecap="round" stroke-linejoin="round" stroke-width="1.5" d="M7.315 11.055v4.176m3.246-6.593V6.555c0-.892-.727-1.615-1.623-1.615s-1.623.723-1.623 1.615v3.747m3.246-.566V4.365a1.62 1.62 0 0 1 1.623-1.615c.897 0 1.623.723 1.623 1.615V9.73m0 .005v-3.18a1.624 1.624 0 0 1 3.246 0v2.19m0 0v.99m0-.99a1.62 1.62 0 0 1 1.624-1.615A1.62 1.62 0 0 1 20.3 8.745v5.935a6.57 6.57 0 0 1-6.57 6.57h-2.95a7.08 7.08 0 0 1-7.069-7.492l.015-.256a3.06 3.06 0 0 1 2.13-2.738l1.458-.462m0 0V11.4"/></svg>
